X:1
T:Boys of Blue Hill, The
Z:D Major
L:1/8
M:4/4
I:linebreak $
K:D
V:1 treble
V:1
 dB |:"D" BAFA DAFA |"G" BA (3(Bcd) "A"e2 de |"D"  fagf "A"egfe |"Bm" dfed B2 "G"dB|$
 "D" (3(ABA) FA D2 FA |"G"  BA (3Bcd "A"e2 de |"D"  fagf "A"egfe |1"D"  d2 f2 d2 dB :|2"D"  d2 f2 d2 fg ||$
|: "D" afdf a2 gf |"Em" efga b2 ag |"D"  fagf "A"egfe | "Bm" dfed "G"B2 dB | $
"D" (3(ABA) FA D2 FA|"G" BA (3Bcd "A"e2 de |"D"  fagf "A"egfe |1"D"  d2 f2 d2 fg :|2"D"   d2 f2 d4 |]
